X:1
T:Lord Montgomerie's Strathspey
T:Lord Montgomerie's Strathspey
T:John Gow
C:John Gow
L:1/8
M:4/4
K:Gmin
V:1 treble 
V:1
 B | G<G TG>^F GG, G,C/B,/ | A,C{=E} F>D (C/D/)(B,/C/) A,>B | G<G G>B, G,/(A,/B,/)C/ d>B | %4
 (A/c/e/)d/ (c/B/A/)B/{A} G2 G :| G/A/ | BG TGA (B/c/d/)B/ GG/A/ | BG TG>F (D/F/).B/.G/ F/G/A/ | %8
 BG d>e c>d Bb/a/ | g>a Tf{=ef}g gG/A/ | BG TG>A (B/c/d/).B/ GG/A/ | BG TG>F D/(F/B/G/) FG/A/ | %12
 B>G (3Eec (3.DdB (3.CcA | (3.B,BG (3.A,A^F{F} G2 G || %14

